X:1
T:Keelman Brown of Newburn
C:Chris Ormston
R:reel
L:1/8
M:C|
K:D
|: de |\
"D"fdfa d2dc | "G"BGBd "D"A2de | "D"fdfa gfed | "D"f2e2 "A7"e2de |
| "D"fdfa d2dc | "G"BGBd "D"A2de | "D"FA "G"GB "A7"Aage | "D"f2d2 d2 :|
|: ef |\
"G"gBgf "A7"eAde | "Bm"fBfe "D"d2de | "D"fdfa gfed | "D"f2e2 "A7"e2ef |
| "G"gBgf "A7"eAde | "Bm"fBfe "D"d2AG | "D"FA "G"GB "A"Aage | "D"f2d2 d2 :|
